front/public/static/landing/logos/gray/electra.svg

<svg fill="none" height="240" viewBox="0 0 600 240" width="600" xmlns="http://www.w3.org/2000/svg" xmlns:xlink="http://www.w3.org/1999/xlink"><mask id="a" height="76" maskUnits="userSpaceOnUse" width="396" x="102" y="82"><path d="m497.369 82.4985h-394.736v74.9995h394.736z" fill="#fff"/></mask><g mask="url(#a)"><path d="m103.129 156.247v-72.4998h41.562v14.5939h-25.562v13.8749h22.781v14.406h-22.781v15h25.562v14.625zm64.812 0c-11.375 0-15.187-4.125-15.187-15.625v-56.8748h16.125v57.9068h23.25v14.593zm31.219 0v-72.4998h41.563v14.5939h-25.563v13.8749h22.781v14.406h-22.781v15h25.531v14.625h-41.562zm46.719-36.25c0-20.6246 17.25-37.4996 38.125-37.4996 15.281 0 27.031 8.2811 33.25 20.4996l-14.375 7.25c-1.587-3.662-4.21-6.779-7.548-8.967-3.337-2.1877-7.243-3.3506-11.233-3.3454-11.969 0-20.875 9.6254-20.875 21.8754 0 12.187 8.906 22.156 20.875 22.156 4.007-.049 7.914-1.258 11.247-3.483 3.334-2.224 5.95-5.367 7.534-9.048l14.562 7.344c-2.988 6.305-7.732 11.614-13.664 15.289-5.931 3.675-12.797 5.56-19.773 5.429-20.969 0-38.125-16.875-38.125-37.5zm90.906 36.25v-57.9059h-15.844v-14.5939h47.782v14.5939h-15.907v57.9059h-15.999zm142.126 0-3.128-12.5h-22.875l-3.187 12.5h-16.313l16.095-57.3749c2.907-10.2498 6.405-15.8437 15.499-15.8437 8.438 0 12.503 5.469 15.188 15.6251l15.843 57.5935zm-22.001-26.312h15.498l-7.56-30.9376zm-42.968-3.906c10.125-4.844 13.841-11.563 13.841-19.376 0-14.4371-10.125-22.9058-24.123-22.9058h-28.844v72.4998h16l.157-57.9996h12.06c5.689 0 8.907 3.7496 8.907 8.4376-.06 8.375-9 10.875-11.937 11.781-1.447.442-2.711 1.336-3.611 2.551s-1.387 2.687-1.387 4.199c0 2.094 1.248 4.813 4.372 6.594 7.125 4.125 12.439 12.75 13.969 24.437h15.814c-1.812-16.25-7.752-26.312-15.218-30.218z" fill="#364153"/></g></svg>

<svg width="600" height="240" viewBox="0 0 600 240" fill="none" xmlns="http://www.w3.org/2000/svg">
<mask id="mask0_1904_3390" style="mask-type:luminance" maskUnits="userSpaceOnUse" x="102" y="82" width="396" height="76">
<path d="M497.369 82.4985H102.633V157.498H497.369V82.4985Z" fill="white"/>
</mask>
<g mask="url(#mask0_1904_3390)">
<path d="M103.129 156.247V83.7472H144.691V98.3411H119.129V112.216H141.91V126.622H119.129V141.622H144.691V156.247H103.129ZM167.941 156.247C156.566 156.247 152.754 152.122 152.754 140.622V83.7472H168.879V141.654H192.129V156.247H167.941ZM199.16 156.247V83.7472H240.723V98.3411H215.16V112.216H237.941V126.622H215.16V141.622H240.691V156.247H199.129H199.16ZM245.879 119.997C245.879 99.3724 263.129 82.4974 284.004 82.4974C299.285 82.4974 311.035 90.7785 317.254 102.997L302.879 110.247C301.292 106.585 298.669 103.468 295.331 101.28C291.994 99.0923 288.088 97.9294 284.098 97.9346C272.129 97.9346 263.223 107.56 263.223 119.81C263.223 131.997 272.129 141.966 284.098 141.966C288.105 141.917 292.012 140.708 295.345 138.483C298.679 136.259 301.295 133.116 302.879 129.435L317.441 136.779C314.453 143.084 309.709 148.393 303.777 152.068C297.846 155.743 290.98 157.628 284.004 157.497C263.035 157.497 245.879 140.622 245.879 119.997ZM336.785 156.247V98.3411H320.941V83.7472H368.723V98.3411H352.816V156.247H336.817H336.785ZM478.911 156.247L475.783 143.747H452.908L449.721 156.247H433.408L449.503 98.8721C452.41 88.6223 455.908 83.0284 465.002 83.0284C473.44 83.0284 477.505 88.4974 480.19 98.6535L496.033 156.247H478.911ZM456.91 129.935H472.408L464.848 98.9974L456.91 129.935ZM413.942 126.029C424.067 121.185 427.783 114.466 427.783 106.653C427.783 92.2159 417.658 83.7472 403.66 83.7472H374.816V156.247H390.816L390.973 98.2474H403.033C408.722 98.2474 411.94 101.997 411.94 106.685C411.88 115.06 402.94 117.56 400.003 118.466C398.556 118.908 397.292 119.802 396.392 121.017C395.492 122.232 395.005 123.704 395.005 125.216C395.005 127.31 396.253 130.029 399.377 131.81C406.502 135.935 411.816 144.56 413.346 156.247H429.16C427.348 139.997 421.408 129.935 413.942 126.029Z" fill="#364153"/>
</g>
</svg>
